emblems/24/emblem-symbolic-link.svg

<?xml version="1.0" encoding="UTF-8" standalone="no"?>
<!-- Created with Inkscape (http://www.inkscape.org/) -->

<svg
   xmlns:dc="http://purl.org/dc/elements/1.1/"
   xmlns:cc="http://creativecommons.org/ns#"
   xmlns:rdf="http://www.w3.org/1999/02/22-rdf-syntax-ns#"
   xmlns:svg="http://www.w3.org/2000/svg"
   xmlns="http://www.w3.org/2000/svg"
   xmlns:xlink="http://www.w3.org/1999/xlink"
   xmlns:inkscape="http://www.inkscape.org/namespaces/inkscape"
   version="1.0"
   width="24"
   height="24"
   id="svg2475">
  <metadata
     id="metadata64">
    <rdf:RDF>
      <cc:Work
         rdf:about="">
        <dc:format>image/svg+xml</dc:format>
        <dc:type
           rdf:resource="http://purl.org/dc/dcmitype/StillImage" />
      </cc:Work>
    </rdf:RDF>
  </metadata>
  <defs
     id="defs2477">
    <linearGradient
       id="linearGradient3391">
      <stop
         id="stop3393"
         style="stop-color:#ffffff;stop-opacity:0"
         offset="0" />
      <stop
         id="stop3395"
         style="stop-color:#ffffff;stop-opacity:0.32156864"
         offset="0.89122951" />
      <stop
         id="stop3397"
         style="stop-color:#ffffff;stop-opacity:0"
         offset="1" />
    </linearGradient>
    <linearGradient
       id="linearGradient3377">
      <stop
         id="stop3379"
         style="stop-color:#000000;stop-opacity:0.99607843"
         offset="0" />
      <stop
         id="stop3381"
         style="stop-color:#3e3e3e;stop-opacity:0.83529413"
         offset="0.68190742" />
      <stop
         id="stop3383"
         style="stop-color:#666666;stop-opacity:0.37254903"
         offset="0.95274329" />
      <stop
         id="stop3385"
         style="stop-color:#a1ba49;stop-opacity:0"
         offset="1" />
    </linearGradient>
    <linearGradient
       id="linearGradient3362">
      <stop
         id="stop3364"
         style="stop-color:#ffffff;stop-opacity:1"
         offset="0" />
      <stop
         id="stop3366"
         style="stop-color:#ffffff;stop-opacity:0"
         offset="1" />
    </linearGradient>
    <linearGradient
       x1="31.270321"
       y1="10.819631"
       x2="31.270321"
       y2="36.353996"
       id="linearGradient3372"
       xlink:href="#linearGradient3377"
       gradientUnits="userSpaceOnUse"
       gradientTransform="matrix(-0.4956085,0.3817448,-0.3558565,-0.4619985,35.618265,15.600967)" />
    <linearGradient
       x1="35.998066"
       y1="31.247124"
       x2="35.998066"
       y2="36.353996"
       id="linearGradient3374"
       xlink:href="#linearGradient3362"
       gradientUnits="userSpaceOnUse"
       gradientTransform="matrix(-0.4956085,0.3817448,-0.3558565,-0.4619985,35.618265,15.600967)" />
    <linearGradient
       x1="46.017906"
       y1="14.548307"
       x2="16.419912"
       y2="12.95892"
       id="linearGradient3389"
       xlink:href="#linearGradient3391"
       gradientUnits="userSpaceOnUse"
       gradientTransform="matrix(0.4170375,0.541428,-0.5808166,0.4473767,15.482462,-8.7130884)" />
    <linearGradient
       x1="46.017906"
       y1="14.548307"
       x2="16.419912"
       y2="12.95892"
       id="linearGradient2443"
       xlink:href="#linearGradient3391"
       gradientUnits="userSpaceOnUse"
       gradientTransform="matrix(0.4170375,0.541428,-0.5808166,0.4473767,15.482462,-8.7130884)" />
  </defs>
  <g
     transform="matrix(0.749219,0,0,0.749219,5.8978773,5.8978774)"
     id="layer1">
    <path
       d="M 0.57363001,9.4445265 C 19.940629,-6.4454859 29.68571,11.703246 19.29451,19.556878 L 22.345612,23.518037 9.5,23.507497 l 2.471867,-13.4574 c 0,0 3.051101,3.961159 3.051101,3.961159 7.17832,-5.0978033 1.036909,-16.3008862 -14.44933799,-4.5667295 z"
       inkscape:connector-curvature="0"
       id="path3503"
       style="fill:url(#linearGradient3372);fill-opacity:1;fill-rule:nonzero;stroke:url(#linearGradient3374);stroke-width:1.28657293;stroke-linecap:butt;stroke-linejoin:round;stroke-miterlimit:7;stroke-opacity:1;stroke-dasharray:none;stroke-dashoffset:0;marker:none;visibility:visible;display:block;overflow:visible" />
    <path
       d="m 15.341173,4.4048673 c 5.730654,-0.7951852 11.523102,8.3995297 2.550885,14.9699997 l 2.440881,3.168927 c 0,0 -9.657381,-0.07558 -9.657381,-0.07558 l 1.900075,-10.223433 c 0,0 2.265324,3.168927 2.265324,3.168927 7.478691,-5.5041372 3.057096,-11.5657435 0.500216,-11.0088407 z"
       inkscape:connector-curvature="0"
       id="path3505"
       style="opacity:0.4;fill:none;stroke:url(#linearGradient2443);stroke-width:1.28657293;stroke-linecap:butt;stroke-linejoin:miter;stroke-miterlimit:7;stroke-opacity:1;stroke-dasharray:none;stroke-dashoffset:0;marker:none;visibility:visible;display:block;overflow:visible" />
  </g>
</svg>

<?xml version="1.0" encoding="UTF-8" standalone="no"?>
<!-- Created with Inkscape (http://www.inkscape.org/) -->
<svg
   xmlns:dc="http://purl.org/dc/elements/1.1/"
   xmlns:cc="http://creativecommons.org/ns#"
   xmlns:rdf="http://www.w3.org/1999/02/22-rdf-syntax-ns#"
   xmlns:svg="http://www.w3.org/2000/svg"
   xmlns="http://www.w3.org/2000/svg"
   xmlns:xlink="http://www.w3.org/1999/xlink"
   xmlns:sodipodi="http://sodipodi.sourceforge.net/DTD/sodipodi-0.dtd"
   xmlns:inkscape="http://www.inkscape.org/namespaces/inkscape"
   version="1.0"
   width="24"
   height="24"
   id="svg2475"
   sodipodi:version="0.32"
   inkscape:version="0.46"
   sodipodi:docname="emblem-symbolic-link.svg"
   inkscape:output_extension="org.inkscape.output.svg.inkscape">
  <metadata
     id="metadata64">
    <rdf:RDF>
      <cc:Work
         rdf:about="">
        <dc:format>image/svg+xml</dc:format>
        <dc:type
           rdf:resource="http://purl.org/dc/dcmitype/StillImage" />
      </cc:Work>
    </rdf:RDF>
  </metadata>
  <sodipodi:namedview
     inkscape:window-height="789"
     inkscape:window-width="1440"
     inkscape:pageshadow="2"
     inkscape:pageopacity="0.0"
     guidetolerance="10.0"
     gridtolerance="10.0"
     objecttolerance="10.0"
     borderopacity="1.0"
     bordercolor="#666666"
     pagecolor="#ffffff"
     id="base"
     showgrid="true"
     inkscape:zoom="20.75"
     inkscape:cx="4.5783133"
     inkscape:cy="12"
     inkscape:window-x="0"
     inkscape:window-y="24"
     inkscape:current-layer="svg2475">
    <inkscape:grid
       type="xygrid"
       id="grid2439" />
  </sodipodi:namedview>
  <defs
     id="defs2477">
    <linearGradient
       id="linearGradient3391">
      <stop
         id="stop3393"
         style="stop-color:#ffffff;stop-opacity:0"
         offset="0" />
      <stop
         id="stop3395"
         style="stop-color:#ffffff;stop-opacity:0.32156864"
         offset="0.89122951" />
      <stop
         id="stop3397"
         style="stop-color:#ffffff;stop-opacity:0"
         offset="1" />
    </linearGradient>
    <linearGradient
       id="linearGradient3377">
      <stop
         id="stop3379"
         style="stop-color:#000000;stop-opacity:0.99607843"
         offset="0" />
      <stop
         id="stop3381"
         style="stop-color:#3e3e3e;stop-opacity:0.83529413"
         offset="0.68190742" />
      <stop
         id="stop3383"
         style="stop-color:#666666;stop-opacity:0.37254903"
         offset="0.95274329" />
      <stop
         id="stop3385"
         style="stop-color:#a1ba49;stop-opacity:0"
         offset="1" />
    </linearGradient>
    <linearGradient
       id="linearGradient3362">
      <stop
         id="stop3364"
         style="stop-color:#ffffff;stop-opacity:1"
         offset="0" />
      <stop
         id="stop3366"
         style="stop-color:#ffffff;stop-opacity:0"
         offset="1" />
    </linearGradient>
    <linearGradient
       x1="31.270321"
       y1="10.819631"
       x2="31.270321"
       y2="36.353996"
       id="linearGradient3372"
       xlink:href="#linearGradient3377"
       gradientUnits="userSpaceOnUse"
       gradientTransform="matrix(-0.4956085,0.3817448,-0.3558565,-0.4619985,35.618265,15.600967)" />
    <linearGradient
       x1="35.998066"
       y1="31.247124"
       x2="35.998066"
       y2="36.353996"
       id="linearGradient3374"
       xlink:href="#linearGradient3362"
       gradientUnits="userSpaceOnUse"
       gradientTransform="matrix(-0.4956085,0.3817448,-0.3558565,-0.4619985,35.618265,15.600967)" />
    <linearGradient
       x1="46.017906"
       y1="14.548307"
       x2="16.419912"
       y2="12.95892"
       id="linearGradient3389"
       xlink:href="#linearGradient3391"
       gradientUnits="userSpaceOnUse"
       gradientTransform="matrix(0.4170375,0.541428,-0.5808166,0.4473767,15.482462,-8.7130884)" />
    <linearGradient
       inkscape:collect="always"
       xlink:href="#linearGradient3391"
       id="linearGradient2443"
       gradientUnits="userSpaceOnUse"
       gradientTransform="matrix(0.4170375,0.541428,-0.5808166,0.4473767,15.482462,-8.7130884)"
       x1="46.017906"
       y1="14.548307"
       x2="16.419912"
       y2="12.95892" />
  </defs>
  <g
     id="layer1"
     transform="matrix(0.749219,0,0,0.749219,5.8978773,5.8978774)">
    <path
       d="M 0.57363001,9.4445265 C 19.940629,-6.4454859 29.68571,11.703246 19.29451,19.556878 L 22.345612,23.518037 L 9.5,23.507497 L 11.971867,10.050097 C 11.971867,10.050097 15.022968,14.011256 15.022968,14.011256 C 22.201288,8.9134527 16.059877,-2.2896302 0.57363001,9.4445265 z"
       id="path3503"
       style="fill:url(#linearGradient3372);fill-opacity:1;fill-rule:nonzero;stroke:url(#linearGradient3374);stroke-width:1.28657293;stroke-linecap:butt;stroke-linejoin:round;marker:none;marker-start:none;marker-mid:none;marker-end:none;stroke-miterlimit:7;stroke-dasharray:none;stroke-dashoffset:0;stroke-opacity:1;visibility:visible;display:block;overflow:visible" />
    <path
       d="M 15.341173,4.4048673 C 21.071827,3.6096821 26.864275,12.804397 17.892058,19.374867 L 20.332939,22.543794 C 20.332939,22.543794 10.675558,22.468214 10.675558,22.468214 L 12.575633,12.244781 C 12.575633,12.244781 14.840957,15.413708 14.840957,15.413708 C 22.319648,9.9095708 17.898053,3.8479645 15.341173,4.4048673 z"
       id="path3505"
       style="opacity:0.4;fill:none;fill-opacity:1;fill-rule:nonzero;stroke:url(#linearGradient2443);stroke-width:1.28657293;stroke-linecap:butt;stroke-linejoin:miter;marker:none;marker-start:none;marker-mid:none;marker-end:none;stroke-miterlimit:7;stroke-dasharray:none;stroke-dashoffset:0;stroke-opacity:1;visibility:visible;display:block;overflow:visible" />
  </g>
</svg>
